!!!Genre:	Sher
!!!Mode:	Minor
!!!Listening/dance:	dance
!!!One_Mode:	yes
**kern
*I"P1
*clefG2
*k[b-e-]
*g:
*M2/4
*>A
16gLL
16gJJ
8aL
8b-J
=1
4cc
16b-LL
16aJ
8b-J
=2
4cc
16b-LL
16aJ
8b-J
=3
8ccL
8ccJ
[4b-
=4
8b-L]
8g
8a
8b-J
=5
4cc
16b-LL
16aJ
8b-J
=6
4cc
16ee-LL
16ddJ
8ccJ
=7
8.ddL
16cc#XJk
8dd
8r
=8
8r
8gL
8a
8b-J
=9
16ccnLL
16ddJ
8ccJ
16b-LL
16aJ
8b-J
=10
16ccLL
16ddJ
8ccJ
16b-LL
16aJ
8b-J
=11
8ccL
8ccJ
4b-
=12
8r
8gL
8a
8b-J
=13
4cc
4dd
=14
16ddLL
16ccJ
8b-J
16b-LL
16aJ
8gJ
=15
2g
=16||
*>B
8r
8fL
8b-
8ddJ
=17
4ff
4ee-
=18
4dd
4ee-
=19
4.dd
8cc
=20
8ddL
8ccJ
4b-
=21
8cc
4cc
8b-
=22
4ff
16ee-LL
16ddJ
8ccJ
=23
2dd
=24
4dd
8r
16ddLL
16ddJJ
=25
4ff
4gg
=26
8aa-XL
8gg
8ff
8ee-J
=27
(4.dd
8cc)
=28
8ddL
8ccJ
4b-
=29
8cc
4cc
8b-
=30
16ddLL
16ccJ
8b-J
16b-LL
16aJ
8gJ
=31
2g
=32
8g
==
*-
